assets/stickers/emoticons/stickers/imgly_sticker_emoticons_asleep.svg

<svg height="58" viewBox="0 0 62 58" width="62" xmlns="http://www.w3.org/2000/svg"><g fill="none"><path d="m61.3 34.5c0 13-11.9 23.5-30.3 23.5s-30.3-10.5-30.3-23.5 11.9-32.5 30.3-32.5 30.3 19.5 30.3 32.5z" fill="#f7910b"/><path d="m61.3 34.5c0 13-11.9 19.5-30.3 19.5s-30.3-6.5-30.3-19.5 11.9-34.5 30.3-34.5 30.3 21.5 30.3 34.5z" fill="#f7910b"/><path d="m31 0c18.4 0 30.3 21.5 30.3 34.5s-11.9 19.5-30.3 19.5" fill="#f9a908"/><path d="m61.3 34.5c0 13-11.9 19.5-30.3 19.5s-30.3-6.5-30.3-19.5 11.9-32.5 30.3-32.5 30.3 19.5 30.3 32.5z" fill="#f9a908"/><path d="m.7 34.5c0-13 11.9-32.5 30.3-32.5" fill="#f9c55d"/><path d="m31 2c18.4 0 30.3 19.5 30.3 32.5s-11.9 23.5-30.3 23.5" fill="#f7910b"/><path d="m31 2c18.4 0 30.3 19.5 30.3 32.5" fill="#ea7103"/><g transform="translate(18 8)"><path d="m6.6 1.9c.2 1.3-1.3.9-3.1 1.2s-3.1 1.2-3.3-.1 1.1-2.6 2.9-2.8c1.7-.4 3.3.4 3.5 1.7z" fill="#19bca4"/><path d="m6.6 1.9c.2 1.3-1.3.9-3.1 1.2s-3.1 1.2-3.3-.1" fill="#109da0"/></g><g transform="translate(37 11)"><path d="m.1.9c-.3.8 1.2.9 2.9 1.6 1.7.6 2.9 1.6 3.2.8s-.8-2-2.5-2.6c-1.6-.7-3.2-.6-3.6.2z" fill="#19bca4"/><path d="m.1.9c-.3.8 1.2.9 2.9 1.6 1.7.6 2.9 1.6 3.2.8" fill="#109da0"/></g><g transform="translate(11 25)"><path d="m15.8 2.8c0 1.2-3.5.7-7.8.7s-7.8.6-7.8-.7c0-1.2 3.5-2.2 7.8-2.2s7.8 1 7.8 2.2z" fill="#f9c55d"/><path d="m39.8 2.8c0 1.2-3.5.7-7.8.7s-7.8.6-7.8-.7c0-1.2 3.5-2.2 7.8-2.2s7.8 1 7.8 2.2z" fill="#f9a908"/></g><ellipse cx="9.3" cy="31.5" fill="#f7910b" rx="1" ry="1"/><ellipse cx="4.8" cy="33.5" fill="#f7910b" rx="1.1" ry="1.1"/><circle cx="7.8" cy="29.5" fill="#f7910b" r="1"/><circle cx="12.4" cy="31.3" fill="#f7910b" r="1"/><circle cx="51.6" cy="31.8" fill="#f9a908" r="1"/><circle cx="54.1" cy="33.2" fill="#f9a908" r="1"/><circle cx="48.8" cy="24.4" fill="#f9a908" r="1"/><ellipse cx="48.3" cy="36" fill="#f9a908" rx="1.3" ry="1.3"/><circle cx="55.5" cy="36.1" fill="#f9a908" r="1"/><circle cx="8.3" cy="35.5" fill="#f7910b" r="1"/><circle cx="9.1" cy="27.1" fill="#f7910b" r="1"/><g fill="#f9a908"><circle cx="3.8" cy="13.3" r="1.1"/><ellipse cx="7" cy="9.8" rx="1" ry="1"/><circle cx="58.2" cy="15.7" r="1"/><ellipse cx="57.4" cy="12.8" rx="1" ry="1"/><circle cx="60" cy="13.3" r="1"/><ellipse cx="5" cy="16.3" rx="1" ry="1"/></g><g transform="translate(37 19)"><path d="m2.2.9c.4.1.8.3 1.1.7 1.1 1.6 3.4 2 5 .9.8-.5 1.8-.3 2.3.4s.3 1.8-.4 2.3c-3.1 2.2-7.4 1.4-9.6-1.8-.5-.7-.3-1.8.4-2.3.4-.2.8-.2 1.2-.2z" fill="#1e4784"/><path d="m.6 3.5c-.5-.7-.3-1.8.4-2.3.4-.3.8-.3 1.2-.3.4.1.8.3 1.1.7 1.1 1.6 3.4 2 5 .9.8-.5 1.8-.3 2.3.4s.3 1.8-.4 2.3" fill="#02243e"/></g><g transform="translate(14 19)"><path d="m8.9.9c-.4.1-.8.3-1.1.7-1.1 1.6-3.4 2-5 .9-.8-.5-1.8-.3-2.3.4s-.3 1.8.4 2.3c3.1 2.2 7.4 1.4 9.6-1.8.5-.7.3-1.8-.4-2.3-.3-.2-.7-.2-1.2-.2z" fill="#1e4784"/><path d="m10.6 3.5c.5-.7.3-1.8-.4-2.3-.4-.3-.8-.3-1.2-.3-.4.1-.8.3-1.1.7-1.1 1.6-3.4 2-5 .9-.8-.5-1.8-.3-2.3.4-.5.7-.3 1.8.4 2.3" fill="#02243e"/></g><path d="m40.8 34.9c0 2.6-4.4 1.8-9.8 1.8s-9.8.9-9.8-1.8c0-2.6 4.4-4.8 9.8-4.8 5.4.1 9.8 2.2 9.8 4.8z" fill="#99144a"/><path d="m40.8 34.9c0 2.6-4.4 1.8-9.8 1.8s-9.8.9-9.8-1.8" fill="#6d0c38"/><path d="m33.6 27.8s15.9.3 11.9 13.8 18.4 13.8 15-1.3c-3.9-17.3-26.9-12.5-26.9-12.5z" fill="#a4d8ea"/><path d="m33.6 27.8s15.9.3 11.9 13.8 18.4 13.8 15-1.3c-3.9-17.3-26.9-12.5-26.9-12.5z" fill="#a4d8ea"/><path d="m60.5 40.3c-3.6-16-23.6-13.1-26.6-12.6 7 .3 15.1.4 19 9.9 3.7 9.2.1 13.5-4 13.3 5.4 2.4 13.8-.9 11.6-10.6z" fill="#78c7dd"/></g></svg>

<?xml version="1.0" encoding="UTF-8"?>
<svg width="62px" height="58px" viewBox="0 0 62 58" version="1.1" xmlns="http://www.w3.org/2000/svg" xmlns:xlink="http://www.w3.org/1999/xlink">
    <!-- Generator: Sketch 43.1 (39012) - http://www.bohemiancoding.com/sketch -->
    <title>imgly_sticker_emoticons_asleep</title>
    <desc>Created with Sketch.</desc>
    <defs></defs>
    <g id="Page-1" stroke="none" stroke-width="1" fill="none" fill-rule="evenodd">
        <g id="asleep" fill-rule="nonzero">
            <g id="Group">
                <path d="M61.3,34.5 C61.3,47.5 49.4,58 31,58 C12.6,58 0.7,47.5 0.7,34.5 C0.7,21.5 12.6,2 31,2 C49.4,2 61.3,21.5 61.3,34.5 Z" id="Shape" fill="#F7910B"></path>
                <path d="M61.3,34.5 C61.3,47.5 49.4,54 31,54 C12.6,54 0.7,47.5 0.7,34.5 C0.7,21.5 12.6,0 31,0 C49.4,0 61.3,21.5 61.3,34.5 Z" id="Shape" fill="#F7910B"></path>
                <path d="M31,0 C49.4,0 61.3,21.5 61.3,34.5 C61.3,47.5 49.4,54 31,54" id="Shape" fill="#F9A908"></path>
                <path d="M61.3,34.5 C61.3,47.5 49.4,54 31,54 C12.6,54 0.7,47.5 0.7,34.5 C0.7,21.5 12.6,2 31,2 C49.4,2 61.3,21.5 61.3,34.5 Z" id="Shape" fill="#F9A908"></path>
                <path d="M0.7,34.5 C0.7,21.5 12.6,2 31,2" id="Shape" fill="#F9C55D"></path>
                <path d="M31,2 C49.4,2 61.3,21.5 61.3,34.5 C61.3,47.5 49.4,58 31,58" id="Shape" fill="#F7910B"></path>
                <path d="M31,2 C49.4,2 61.3,21.5 61.3,34.5" id="Shape" fill="#EA7103"></path>
                <g transform="translate(18.000000, 8.000000)" id="Shape">
                    <g>
                        <path d="M6.6,1.9 C6.8,3.2 5.3,2.8 3.5,3.1 C1.7,3.4 0.4,4.3 0.2,3 C1.55431223e-15,1.7 1.3,0.4 3.1,0.2 C4.8,-0.2 6.4,0.6 6.6,1.9 Z" fill="#19BCA4"></path>
                        <path d="M6.6,1.9 C6.8,3.2 5.3,2.8 3.5,3.1 C1.7,3.4 0.4,4.3 0.2,3" fill="#109DA0"></path>
                    </g>
                    <g transform="translate(19.000000, 3.000000)">
                        <path d="M0.1,0.9 C-0.2,1.7 1.3,1.8 3,2.5 C4.7,3.1 5.9,4.1 6.2,3.3 C6.5,2.5 5.4,1.3 3.7,0.7 C2.1,-1.11022302e-16 0.5,0.1 0.1,0.9 Z" fill="#19BCA4"></path>
                        <path d="M0.1,0.9 C-0.2,1.7 1.3,1.8 3,2.5 C4.7,3.1 5.9,4.1 6.2,3.3" fill="#109DA0"></path>
                    </g>
                </g>
                <g transform="translate(11.000000, 25.000000)" id="Shape">
                    <path d="M15.8,2.8 C15.8,4 12.3,3.5 8,3.5 C3.7,3.5 0.2,4.1 0.2,2.8 C0.2,1.6 3.7,0.6 8,0.6 C12.3,0.6 15.8,1.6 15.8,2.8 Z" fill="#F9C55D"></path>
                    <path d="M39.8,2.8 C39.8,4 36.3,3.5 32,3.5 C27.7,3.5 24.2,4.1 24.2,2.8 C24.2,1.6 27.7,0.6 32,0.6 C36.3,0.6 39.8,1.6 39.8,2.8 Z" fill="#F9A908"></path>
                </g>
                <ellipse id="Oval" fill="#F7910B" cx="9.3" cy="31.5" rx="1" ry="1"></ellipse>
                <ellipse id="Oval" fill="#F7910B" cx="4.8" cy="33.5" rx="1.1" ry="1.1"></ellipse>
                <circle id="Oval" fill="#F7910B" cx="7.8" cy="29.5" r="1"></circle>
                <circle id="Oval" fill="#F7910B" cx="12.4" cy="31.3" r="1"></circle>
                <circle id="Oval" fill="#F9A908" cx="51.6" cy="31.8" r="1"></circle>
                <circle id="Oval" fill="#F9A908" cx="54.1" cy="33.2" r="1"></circle>
                <circle id="Oval" fill="#F9A908" cx="48.8" cy="24.4" r="1"></circle>
                <ellipse id="Oval" fill="#F9A908" cx="48.3" cy="36" rx="1.3" ry="1.3"></ellipse>
                <circle id="Oval" fill="#F9A908" cx="55.5" cy="36.1" r="1"></circle>
                <circle id="Oval" fill="#F7910B" cx="8.3" cy="35.5" r="1"></circle>
                <circle id="Oval" fill="#F7910B" cx="9.1" cy="27.1" r="1"></circle>
                <circle id="Oval" fill="#F9A908" cx="3.8" cy="13.3" r="1.1"></circle>
                <ellipse id="Oval" fill="#F9A908" cx="7" cy="9.8" rx="1" ry="1"></ellipse>
                <circle id="Oval" fill="#F9A908" cx="58.2" cy="15.7" r="1"></circle>
                <ellipse id="Oval" fill="#F9A908" cx="57.4" cy="12.8" rx="1" ry="1"></ellipse>
                <circle id="Oval" fill="#F9A908" cx="60" cy="13.3" r="1"></circle>
                <ellipse id="Oval" fill="#F9A908" cx="5" cy="16.3" rx="1" ry="1"></ellipse>
                <g transform="translate(14.000000, 19.000000)" id="Shape">
                    <g transform="translate(23.000000, 0.000000)">
                        <path d="M2.2,0.9 C2.6,1 3,1.2 3.3,1.6 C4.4,3.2 6.7,3.6 8.3,2.5 C9.1,2 10.1,2.2 10.6,2.9 C11.1,3.6 10.9,4.7 10.2,5.2 C7.1,7.4 2.8,6.6 0.6,3.4 C0.1,2.7 0.3,1.6 1,1.1 C1.4,0.9 1.8,0.9 2.2,0.9 Z" fill="#1E4784"></path>
                        <path d="M0.6,3.5 C0.1,2.8 0.3,1.7 1,1.2 C1.4,0.9 1.8,0.9 2.2,0.9 C2.6,1 3,1.2 3.3,1.6 C4.4,3.2 6.7,3.6 8.3,2.5 C9.1,2 10.1,2.2 10.6,2.9 C11.1,3.6 10.9,4.7 10.2,5.2" fill="#02243E"></path>
                    </g>
                    <g>
                        <path d="M8.9,0.9 C8.5,1 8.1,1.2 7.8,1.6 C6.7,3.2 4.4,3.6 2.8,2.5 C2,2 1,2.2 0.5,2.9 C-1.99840144e-15,3.6 0.2,4.7 0.9,5.2 C4,7.4 8.3,6.6 10.5,3.4 C11,2.7 10.8,1.6 10.1,1.1 C9.8,0.9 9.4,0.9 8.9,0.9 Z" fill="#1E4784"></path>
                        <path d="M10.6,3.5 C11.1,2.8 10.9,1.7 10.2,1.2 C9.8,0.9 9.4,0.9 9,0.9 C8.6,1 8.2,1.2 7.9,1.6 C6.8,3.2 4.5,3.6 2.9,2.5 C2.1,2 1.1,2.2 0.6,2.9 C0.1,3.6 0.3,4.7 1,5.2" fill="#02243E"></path>
                    </g>
                </g>
                <path d="M40.8,34.9 C40.8,37.5 36.4,36.7 31,36.7 C25.6,36.7 21.2,37.6 21.2,34.9 C21.2,32.3 25.6,30.1 31,30.1 C36.4,30.2 40.8,32.3 40.8,34.9 Z" id="Shape" fill="#99144A"></path>
                <path d="M40.8,34.9 C40.8,37.5 36.4,36.7 31,36.7 C25.6,36.7 21.2,37.6 21.2,34.9" id="Shape" fill="#6D0C38"></path>
            </g>
            <path d="M33.6,27.8 C33.6,27.8 49.5,28.1 45.5,41.6 C41.5,55.1 63.9,55.4 60.5,40.3 C56.6,23 33.6,27.8 33.6,27.8 Z" id="Shape" fill="#A4D8EA"></path>
            <path d="M33.6,27.8 C33.6,27.8 49.5,28.1 45.5,41.6 C41.5,55.1 63.9,55.4 60.5,40.3 C56.6,23 33.6,27.8 33.6,27.8 Z" id="Shape" fill="#A4D8EA"></path>
            <path d="M60.5,40.3 C56.9,24.3 36.9,27.2 33.9,27.7 C40.9,28 49,28.1 52.9,37.6 C56.6,46.8 53,51.1 48.9,50.9 C54.3,53.3 62.7,50 60.5,40.3 Z" id="Shape" fill="#78C7DD"></path>
        </g>
    </g>
</svg>
